svgs/linux_android_backup.svg

<svg xmlns="http://www.w3.org/2000/svg" viewBox="0 0 192 192"><path fill="none" stroke="#000" stroke-width="12" d="m89.684 154.472-21.516-21.528 21.529-21.516 21.528-21.515h49.548l-21.518 21.517-21.517 21.518 21.513 21.526L160.764 176h-49.565ZM43.382 108.17 31.227 95.992l39.989-39.996L111.205 16h49.567l-52.169 52.174c-28.692 28.696-52.37 52.174-52.617 52.174-.247 0-5.919-5.48-12.604-12.178Z"/></svg>

<svg
    xmlns="http://www.w3.org/2000/svg"
    viewBox="0 0 192 192"
    id="vector">
    <path
        id="path"
        d="M 89.684 154.472 L 68.168 132.944 L 89.697 111.428 L 111.225 89.913 L 160.773 89.913 L 139.255 111.43 L 117.738 132.948 L 139.251 154.474 L 160.764 176 L 111.199 176 Z M 43.382 108.17 L 31.227 95.992 L 71.216 55.996 L 111.205 16 L 160.772 16 L 108.603 68.174 C 79.911 96.87 56.233 120.348 55.986 120.348 C 55.739 120.348 50.067 114.868 43.382 108.17 Z"
        fill="none"
        stroke="#000000"
        stroke-width="12"/>
</svg>
